X:1
T:Elverumspols
Z:2008 Brian Wilson <Brian.Wilson@alumni.brown.edu>
M:3/4
L:1/8
K:G
P: sung
| d2 e2 dB | d2 c2 B2 | d2 d>e dB | d2 c2 B2
| G>A B>B cd | AB c>c B2 | G2 G>A Bd | A>B cc B2
| G2 B2 AF | G4 G2 | G2 B2 AF | G4 G2 ||
P: played
| d2 e2 dB | d2 c2 B2 | d2 e>d cB | d2 c2 B2
| GA B>c dB | AB c>d B2 | G2 B>c dB | AB c>d B2
| G2 B2 AF | G4 D2 | GF G>c AF | G2 G4 ||
P: harmony
| g>d ed cB | B2 A2 G2 | d2 g>b ag | bg af g2
| ef dc BG | FG A>B G2 | B,2 D2 C2- | CD EF G2
| B,2 D2 C2 | B,2 D2-D2 | B,2 C2 CA, | B,2 B,4 ||
